X: 6
T: The Boys of Bluehill
T: The Beaux of Oak Hill
O: 1839
R: hornpipe, reel
Z: John Chambers <jc:trillian.mit.edu>
B: Knauff "Virginia Reels" 1839
B: Ryan "Mammoth Collection" 1883
B: Kennedy p.?
B: Allan's 74
B: Cranitch 73 & 75
B: O'Neill's p.197
B: Brody p.54
M: C|
L: 1/8
K: D
|: dB | "D"BAFA DAFA | "G"BABd "A7"e2de | "D"fagf "A7"egfe | "D"dfed "G"B2dB |
| "D"BAFA DAFA | "G"BABd "A7"e2de | "D"faaf "A7"egfe | "D"d2 "(G)"d2 "D"d2 :|
|: fg | "D"afdf a2gf | "Em"efga b2"(A7)"ag | "D"fagf "A7"egfe | "D"dfed "G"B2dB |
| "D"BAFA DAFA | "G"BABd "A7"e2de | "D"faaf "A7"egfe | "D"d2 "(G)"d2 "D"d2 :|

%%sep 2 1 500

